svg/u1f9ef.svg

<svg viewBox="0 0 128 128" xmlns="http://www.w3.org/2000/svg">
  <g>
    <path d="M59.59,21.74c0,0-5.42-0.19-8.92,0.18 c-8.19,0.87-15.2,5.89-14.05,26.17c1.22,21.45,4.09,59.55,4.09,59.55" fill="none" stroke="#424242" stroke-width="5.9729" stroke-miterlimit="10"/>
    <path d="M72.87,38.76v-9.17H59.21v9.17c0,1.93-3.1,2.94-5.1,3.9c-7.32,3.54-10.39,9.35-10.39,17.28v53.69 c0,2.24,2.96,10.36,22.31,10.36c19.35,0,22.31-8.12,22.31-10.36V59.95c0-8.46-3.74-14.59-12.08-17.97 C74.35,41.19,72.87,40.69,72.87,38.76z" fill="#DB3427"/>
    <path d="M59.21,33.95c0,2.96,1.72,6.24,6.83,6.24s6.83-3.28,6.83-6.24L59.21,33.95z" fill="#BA2626"/>
    <path d="M52.77,54.9v28.11c0,0.44,0.32,0.82,0.75,0.89c8.68,1.49,16.71,1.57,25.04,0.01 c0.43-0.08,0.74-0.46,0.74-0.89V54.88c0-0.54-0.47-0.95-1-0.89c-7.72,0.94-16.74,1.12-24.51,0.03 C53.25,53.94,52.77,54.36,52.77,54.9z" fill="#FAFAFA"/>
    <g>
      <radialGradient id="SVGID_1_" cx="65.4404" cy="81.7339" gradientTransform="matrix(0.9775 0 0 0.9469 3.0041 4.1031)" gradientUnits="userSpaceOnUse" r="21.6193">
        <stop offset="0.3995" stop-color="#FF9800"/>
        <stop offset="0.6616" stop-color="#FF6D00"/>
        <stop offset="0.9715" stop-color="#F44336"/>
      </radialGradient>
      <path d="M60.22,65.44c-0.46,1.23-0.96,2.99,0.54,4.25c0,0,0.16-3.35,3.49-5.66 c1.81-1.25,1.2-3,0.81-3.68c-0.37-0.63-1.13-1.21-1.53-1.6c-0.23-0.23-0.05-0.62,0.28-0.6c2.02,0.09,5.29,0.63,6.68,4.01 c0.61,1.48,0.68,2.63,0.16,4.37c-0.29,0.97-1.18,3.48,0.91,4.05c1.05,0.28,1.53-0.98,1.76-1.58c0.1-0.25,0.43-0.31,0.61-0.11 c1.8,1.99,1.96,4.33,1.58,6.34c-0.72,3.89-4.79,6.73-8.84,6.73c-5.05,0-9.08-2.8-10.12-7.87c-0.42-2.05-0.21-6.09,3.05-8.95 C59.86,64.92,60.33,65.13,60.22,65.44z" fill="url(#SVGID_1_)"/>
      <path d="M68.46,71.6c-1.86-2.32-1.03-4.97-0.57-6.03c0.06-0.14-0.1-0.27-0.23-0.18 c-0.8,0.53-2.44,1.77-3.21,3.52c-1.03,2.36-0.96,3.52-0.35,4.93c0.37,0.85-0.06,1.03-0.27,1.06c-0.21,0.03-0.4-0.1-0.55-0.24 c-0.44-0.41-0.76-0.94-0.91-1.51c-0.03-0.12-0.2-0.16-0.28-0.05c-0.57,0.77-0.87,2-0.89,2.87c-0.04,2.69,2.25,4.87,5.03,4.87 c3.5,0,6.05-3.75,4.04-6.89C69.69,73.05,69.14,72.45,68.46,71.6z" fill="#FFEE58"/>
    </g>
    <path d="M66.91,44.29c0.88,0.01,1.86,0.47,1.14,1.82c-0.69,1.29-2.64,4.51-9.81,4.33 c-1.77-0.05-5.72-0.33-6.66-2.49c-0.98-2.27,4.69-5.77,8-4.6C63.03,44.55,63.91,44.27,66.91,44.29z" fill="#FF7555"/>
    <path d="M60.93,25.33c-1.81,0.04-5.11,0.13-7.38,0.23c-0.74,0.03-1.37-0.53-1.42-1.27l-0.43-4.99 c-0.05-0.76,0.53-1.42,1.3-1.46c2.42-0.12,5.84-0.2,7.73-0.25c0.77-0.02,1.39,0.6,1.39,1.37l0.14,5 C62.26,24.71,61.67,25.32,60.93,25.33z" fill="#9E9E9E"/>
    <path d="M34.96,40.89c0.13-3.57,0.84-7.63,1.8-10.06c0.69-1.75,2.36-5.13,4.04-6.57 c2.43-2.08,5.01-3.32,7.52-3.54c2.14-0.19,2.3,1.4-0.55,2.41c-2.39,0.84-4.14,1.59-5.81,3.86c-2.34,3.19-3.67,7.89-4.04,11.01 c-0.17,1.46-0.53,10.67-2.36,8.81C34.63,45.86,34.9,42.35,34.96,40.89z" fill="#616161"/>
    <path d="M60.68,21.84c-2.59-3.1-1.25-6.41,0.52-7.25L85.12,4.05c0.29-0.13,0.64,0.01,0.74,0.31 c1.15,3.33-0.43,7.04-3.71,8.49l-19.7,8.69C61.86,21.79,63.27,24.95,60.68,21.84z" fill="#424242"/>
    <path d="M88.43,27.81c-0.07-0.03-25.97-11.95-25.97-11.95l-0.61,1.54l9.07,4.17 c-0.12,0.18-0.23,0.36-0.33,0.56c-1.04,2.3,0.35,4.05,2.81,4.92c2.64,0.93,9.51,4.04,11.1,4.57c1.88,0.62,2.84-0.02,3.65-0.94 C88.79,29.94,89.75,28.42,88.43,27.81z" fill="#424242"/>
    <path d="M76.11,8.86c0.03,0.04,0.05,0.1,0.04,0.15c-0.01,0.1-0.07,0.19-0.13,0.27 c-0.46,0.56-1.11,0.98-1.66,1.44c-0.56,0.48-1.01,1.07-1.49,1.63c-1.67,1.94-4.47,2.6-6.78,3.53c-1.58,0.64-3.16,1.27-4.74,1.91 c-0.53,0.21-1.26,0.4-1.23-0.48c0.03-0.78,0.63-1.82,2.31-2.54c2.15-0.94,4.78-2.11,6.93-3.05c2.16-0.95,4.36-1.82,6.46-2.88 c0.05-0.02,0.09-0.05,0.15-0.04C76.03,8.79,76.08,8.82,76.11,8.86z" fill="#757575"/>
    <g>
      <circle cx="66.04" cy="27.85" r="10.11" fill="#DB3427"/>
      <circle cx="66.06" cy="27.85" r="6.49" fill="#FAFAFA"/>
      <path d="M66.06,21.54c-0.38,0-1.44,5.74-1.44,6.2c0,0.75,0.65,1.35,1.44,1.35c0.8,0,1.44-0.61,1.44-1.35 C67.5,27.28,66.44,21.54,66.06,21.54z" fill="#212121"/>
    </g>
    <path d="M61.78,22.01c-1.78,1.27-2.65,3.77-2.7,4.74c-0.05,0.98-0.45,1.88-1.26,1.93 c-0.93,0.05-1.07-1.33-1.06-1.72c0.07-2.59,1.21-4.9,3.01-6.41c0.83-0.69,2.37-1.21,3.01-0.37 C63.28,20.85,62.38,21.58,61.78,22.01z" fill="#FF7555"/>
    <path d="M65.96,93.41c-11.64,0-20.63-1.85-22.59-2.26c0,0-0.62-0.27-2.1-0.32l-0.49-5.59 c0,0,0.19-0.02,1.22-0.02c1.02,0,1.92,0.34,1.92,0.34c0.09,0.02,9.93,2.28,22.04,2.28s21.46-2.08,21.55-2.1l0.55-0.14 c0.42-0.09,0.83,0.17,0.87,0.56l0.19,4.38c0.03,0.32-0.19,0.61-0.53,0.68l-0.33,0.08C87.85,91.39,78.86,93.41,65.96,93.41z" fill="#424242"/>
    <path d="M35.94,99.01l-0.49-7.22c-0.02-0.24,0.19-0.42,0.42-0.4c3.25,0.35,5.51-0.15,6.41-0.41 c0.23-0.07,0.46,0.1,0.48,0.34l0.49,7.2c0.01,0.15-0.06,0.29-0.2,0.36c-0.75,0.39-3.44,1.55-6.85,0.46 C36.06,99.31,35.95,99.17,35.94,99.01z" fill="#9E9E9E"/>
  </g>
</svg>

<svg viewBox="0 0 128 128" xmlns="http://www.w3.org/2000/svg">
  <defs>
    <radialGradient id="SVGID_1_" cx="68.513648" cy="86.067093" gradientTransform="matrix(0.9775 0 0 0.9469 0 0)" gradientUnits="userSpaceOnUse" r="21.6193">
      <stop offset="0.3995" stop-color="#FF9800"/>
      <stop offset="0.6616" stop-color="#FF6D00"/>
      <stop offset="0.9715" stop-color="#F44336"/>
    </radialGradient>
  </defs>
  <path d="M59.485,24.725 Q54.275,24.542 50.984,24.89 Q45.25,25.499 42.618,29.397 Q38.866,34.953 39.602,47.921 Q40.819,69.319 43.688,107.416 L37.732,107.864 Q34.859,69.713 33.638,48.259 Q32.086,20.891 50.356,18.95 Q54.065,18.558 59.695,18.755 Z" fill="#424242"/>
  <path d="M72.87,38.76 L72.87,29.59 L59.21,29.59 L59.21,38.76 C59.21,40.69 56.11,41.7 54.11,42.66 C46.79,46.2 43.72,52.01 43.72,59.94 L43.72,113.63 C43.72,115.87 46.68,123.99 66.03,123.99 C85.38,123.99 88.34,115.87 88.34,113.63 L88.34,59.95 C88.34,51.49 84.6,45.36 76.26,41.98 C74.35,41.19 72.87,40.69 72.87,38.76 Z" fill="#DB3427"/>
  <path d="M59.21,33.95 C59.21,36.91 60.93,40.19 66.04,40.19 C71.15,40.19 72.87,36.91 72.87,33.95 L59.21,33.95 Z" fill="#BA2626"/>
  <path d="M52.77,54.9 L52.77,83.01 C52.77,83.45 53.09,83.83 53.52,83.9 C62.2,85.39 70.23,85.47 78.56,83.91 C78.99,83.83 79.3,83.45 79.3,83.02 L79.3,54.88 C79.3,54.34 78.83,53.93 78.3,53.99 C70.58,54.93 61.56,55.11 53.79,54.02 C53.25,53.94 52.77,54.36 52.77,54.9 Z" fill="#FAFAFA"/>
  <path d="M60.22,65.44 C59.76,66.67 59.26,68.43 60.76,69.69 C60.76,69.69 60.92,66.34 64.25,64.03 C66.06,62.78 65.45,61.03 65.06,60.35 C64.69,59.72 63.93,59.14 63.53,58.75 C63.3,58.52 63.48,58.13 63.81,58.15 C65.83,58.24 69.1,58.78 70.49,62.16 C71.1,63.64 71.17,64.79 70.65,66.53 C70.36,67.5 69.47,70.01 71.56,70.58 C72.61,70.86 73.09,69.6 73.32,69 C73.42,68.75 73.75,68.69 73.93,68.89 C75.73,70.88 75.89,73.22 75.51,75.23 C74.79,79.12 70.72,81.96 66.67,81.96 C61.62,81.96 57.59,79.16 56.55,74.09 C56.13,72.04 56.34,68 59.6,65.14 C59.86,64.92 60.33,65.13 60.22,65.44 Z" fill="url(#SVGID_1_)"/>
  <path d="M68.46,71.6 C66.6,69.28 67.43,66.63 67.89,65.57 C67.95,65.43 67.79,65.3 67.66,65.39 C66.86,65.92 65.22,67.16 64.45,68.91 C63.42,71.27 63.49,72.43 64.1,73.84 C64.47,74.69 64.04,74.87 63.83,74.9 C63.62,74.93 63.43,74.8 63.28,74.66 C62.84,74.25 62.52,73.72 62.37,73.15 C62.34,73.03 62.17,72.99 62.09,73.1 C61.52,73.87 61.22,75.1 61.2,75.97 C61.16,78.66 63.45,80.84 66.23,80.84 C69.73,80.84 72.28,77.09 70.27,73.95 C69.69,73.05 69.14,72.45 68.46,71.6 Z" fill="#FFEE58"/>
  <path d="M66.91,44.29 C67.79,44.3 68.77,44.76 68.05,46.11 C67.36,47.4 65.41,50.62 58.24,50.44 C56.47,50.39 52.52,50.11 51.58,47.95 C50.6,45.68 56.27,42.18 59.58,43.35 C63.03,44.55 63.91,44.27 66.91,44.29 Z" fill="#FF7555"/>
  <path d="M60.93,25.33 C59.12,25.37 55.82,25.46 53.55,25.56 C52.81,25.59 52.18,25.03 52.13,24.29 L51.7,19.3 C51.65,18.54 52.23,17.88 53,17.84 C55.42,17.72 58.84,17.64 60.73,17.59 C61.5,17.57 62.12,18.19 62.12,18.96 L62.26,23.96 C62.26,24.71 61.67,25.32 60.93,25.33 Z" fill="#9E9E9E"/>
  <path d="M34.96,40.89 C35.09,37.32 35.8,33.26 36.76,30.83 C37.45,29.08 39.12,25.7 40.8,24.26 C43.23,22.18 45.81,20.94 48.32,20.72 C50.46,20.53 50.62,22.12 47.77,23.13 C45.38,23.97 43.63,24.72 41.96,26.99 C39.62,30.18 38.29,34.88 37.92,38 C37.75,39.46 37.39,48.67 35.56,46.81 C34.63,45.86 34.9,42.35 34.96,40.89 Z" fill="#616161"/>
  <path d="M60.68,21.84 C58.09,18.74 59.43,15.43 61.2,14.59 L85.12,4.05 C85.41,3.92 85.76,4.06 85.86,4.36 C87.01,7.69 85.43,11.4 82.15,12.85 L62.45,21.54 C61.86,21.79 63.27,24.95 60.68,21.84 Z" fill="#424242"/>
  <path d="M88.43,27.81 C88.36,27.78 62.46,15.86 62.46,15.86 L61.85,17.4 L70.92,21.57 C70.8,21.75 70.69,21.93 70.59,22.13 C69.55,24.43 70.94,26.18 73.4,27.05 C76.04,27.98 82.91,31.09 84.5,31.62 C86.38,32.24 87.34,31.6 88.15,30.68 C88.79,29.94 89.75,28.42 88.43,27.81 Z" fill="#424242"/>
  <path d="M76.11,8.86 C76.14,8.9 76.16,8.96 76.15,9.01 C76.14,9.11 76.08,9.2 76.02,9.28 C75.56,9.84 74.91,10.26 74.36,10.72 C73.8,11.2 73.35,11.79 72.87,12.35 C71.2,14.29 68.4,14.95 66.09,15.88 C64.51,16.52 62.93,17.15 61.35,17.79 C60.82,18 60.09,18.19 60.12,17.31 C60.15,16.53 60.75,15.49 62.43,14.77 C64.58,13.83 67.21,12.66 69.36,11.72 C71.52,10.77 73.72,9.9 75.82,8.84 C75.87,8.82 75.91,8.79 75.97,8.8 C76.03,8.79 76.08,8.82 76.11,8.86 Z" fill="#757575"/>
  <path d="M76.15,27.85 A10.11 10.11 0 1 1 55.93,27.85 A10.11 10.11 0 1 1 76.15,27.85 Z" fill="#DB3427"/>
  <path d="M72.55,27.85 A6.49 6.49 0 1 1 59.57,27.85 A6.49 6.49 0 1 1 72.55,27.85 Z" fill="#FAFAFA"/>
  <path d="M66.06,21.54 C65.68,21.54 64.62,27.28 64.62,27.74 C64.62,28.49 65.27,29.09 66.06,29.09 C66.86,29.09 67.5,28.48 67.5,27.74 C67.5,27.28 66.44,21.54 66.06,21.54 Z" fill="#212121"/>
  <path d="M61.78,22.01 C60,23.28 59.13,25.78 59.08,26.75 C59.03,27.73 58.63,28.63 57.82,28.68 C56.89,28.73 56.75,27.35 56.76,26.96 C56.83,24.37 57.97,22.06 59.77,20.55 C60.6,19.86 62.14,19.34 62.78,20.18 C63.28,20.85 62.38,21.58 61.78,22.01 Z" fill="#FF7555"/>
  <path d="M65.96,93.41 C54.32,93.41 45.33,91.56 43.37,91.15 C43.37,91.15 42.75,90.88 41.27,90.83 L40.78,85.24 C40.78,85.24 40.97,85.22 42,85.22 C43.02,85.22 43.92,85.56 43.92,85.56 C44.01,85.58 53.85,87.84 65.96,87.84 C78.07,87.84 87.42,85.76 87.51,85.74 L88.06,85.6 C88.48,85.51 88.89,85.77 88.93,86.16 L89.12,90.54 C89.15,90.86 88.93,91.15 88.59,91.22 L88.26,91.3 C87.85,91.39 78.86,93.41 65.96,93.41 Z" fill="#424242"/>
  <path d="M35.94,99.01 L35.45,91.79 C35.43,91.55 35.64,91.37 35.87,91.39 C39.12,91.74 41.38,91.24 42.28,90.98 C42.51,90.91 42.74,91.08 42.76,91.32 L43.25,98.52 C43.26,98.67 43.19,98.81 43.05,98.88 C42.3,99.27 39.61,100.43 36.2,99.34 C36.06,99.31 35.95,99.17 35.94,99.01 Z" fill="#9E9E9E"/>
</svg>
